svg/color/brat.svg

<svg width="410" height="410" viewBox="0 0 410 410" fill="none" xmlns="http://www.w3.org/2000/svg">
<g clip-path="url(#clip0_4503_8900)">
<rect width="410" height="410" rx="205" fill="black"/>
<rect width="410" height="410" rx="205" fill="black"/>
<path d="M136 28C41.6 62.8 16 153.5 15 194.5C85.8 198.9 144.833 241 165.5 261.5C148.3 161.9 184.667 100.667 205 82.5C191.8 58.9 153.5 36.3333 136 28Z" fill="#009440"/>
<path d="M273.5 28C367.9 62.8 393.5 153.5 394.5 194.5C323.7 198.9 264.667 241 244 261.5C261.2 161.9 224.833 100.667 204.5 82.5C217.7 58.9 256 36.3333 273.5 28Z" fill="#009440"/>
<path d="M139.5 26.0009L205 81.0009L270.5 26.0009C217.3 4.00085 161 16.8342 139.5 26.0009Z" fill="#FFCB00"/>
<path d="M201 340L137 382L201 397V340Z" fill="#009440"/>
<path d="M209.5 340L273.5 382L209.5 397V340Z" fill="#009440"/>
<path d="M204.499 83.5C172.166 117.667 126.899 216.1 204.499 336.5C237.499 291.167 283.699 177.1 204.499 83.5Z" fill="#3F33A1"/>
<path d="M141.121 382.5C37.1211 345.7 15.1211 243.833 17.1211 197.5C127.521 193.9 188.121 289 204.621 337L141.121 382.5Z" fill="#FFCB00"/>
<path d="M269.5 382.5C373.5 345.7 395.5 243.833 393.5 197.5C283.1 193.9 222.5 289 206 337L269.5 382.5Z" fill="#FFCB00"/>
<g clip-path="url(#clip1_4503_8900)">
<mask id="mask0_4503_8900" style="mask-type:luminance" maskUnits="userSpaceOnUse" x="23" y="23" width="364" height="364">
<path d="M386.815 205C386.815 104.585 305.412 23.1822 204.997 23.1822C104.581 23.1822 23.1785 104.585 23.1785 205C23.1785 305.416 104.581 386.819 204.997 386.819C305.412 386.819 386.815 305.416 386.815 205Z" fill="white"/>
</mask>
<g mask="url(#mask0_4503_8900)">
<path d="M350.451 395.908C455.887 395.908 541.36 310.436 541.36 204.999C541.36 99.5629 455.887 14.0902 350.451 14.0902C245.015 14.0902 159.542 99.5629 159.542 204.999C159.542 310.436 245.015 395.908 350.451 395.908Z" stroke="black" stroke-width="18.1818"/>
<path d="M59.5421 395.908C-45.894 395.908 -131.367 310.436 -131.367 204.999C-131.367 99.5629 -45.894 14.0902 59.5421 14.0902C164.979 14.0902 250.451 99.5629 250.451 204.999C250.451 310.436 164.979 395.908 59.5421 395.908Z" stroke="black" stroke-width="18.1818"/>
<path d="M395.906 577.727C501.342 577.727 586.815 492.254 586.815 386.817C586.815 281.381 501.342 195.908 395.906 195.908C290.469 195.908 204.997 281.381 204.997 386.817C204.997 492.254 290.469 577.727 395.906 577.727Z" stroke="black" stroke-width="18.1818"/>
<path d="M14.0876 577.727C-91.3488 577.727 -176.822 492.254 -176.822 386.817C-176.822 281.381 -91.3488 195.908 14.0875 195.908C119.524 195.908 204.997 281.381 204.997 386.817C204.997 492.254 119.524 577.727 14.0876 577.727Z" stroke="black" stroke-width="18.1818"/>
</g>
<path d="M395.909 205C395.909 99.5638 310.436 14.0909 205 14.0909C99.5637 14.0909 14.0908 99.5638 14.0908 205C14.0908 310.436 99.5637 395.909 205 395.909C310.436 395.909 395.909 310.436 395.909 205Z" stroke="black" stroke-width="18.1818"/>
</g>
</g>
<defs>
<clipPath id="clip0_4503_8900">
<rect width="410" height="410" rx="205" fill="white"/>
</clipPath>
<clipPath id="clip1_4503_8900">
<rect width="400" height="400" fill="white" transform="translate(5 5)"/>
</clipPath>
</defs>
</svg>

<svg xmlns="http://www.w3.org/2000/svg" width="410" height="410" fill="none" viewBox="0 0 410 410"><g clip-path="url(#brat_svg-a)"><rect width="410" height="410" fill="#000" rx="205"/><rect width="410" height="410" fill="#000" rx="205"/><path fill="#009440" d="M136 28C41.6 62.8 16 153.5 15 194.5c70.8 4.4 129.833 46.5 150.5 67-17.2-99.6 19.167-160.833 39.5-179-13.2-23.6-51.5-46.167-69-54.5"/><path fill="#009440" d="M273.5 28c94.4 34.8 120 125.5 121 166.5-70.8 4.4-129.833 46.5-150.5 67 17.2-99.6-19.167-160.833-39.5-179 13.2-23.6 51.5-46.167 69-54.5"/><path fill="#FFCB00" d="M139.5 26 205 81l65.5-55c-53.2-22-109.5-9.166-131 0"/><path fill="#009440" d="m201 340-64 42 64 15zm8.5 0 64 42-64 15z"/><path fill="#3F33A1" d="M204.499 83.5c-32.333 34.167-77.6 132.6 0 253 33-45.333 79.2-159.4 0-253"/><path fill="#FFCB00" d="M141.121 382.5c-104-36.8-126-138.667-124-185 110.4-3.6 171 91.5 187.5 139.5zm128.379 0c104-36.8 126-138.667 124-185C283.1 193.9 222.5 289 206 337z"/><g clip-path="url(#brat_svg-b)"><mask id="brat_svg-c" width="364" height="364" x="23" y="23" maskUnits="userSpaceOnUse" style="mask-type:luminance"><path fill="#fff" d="M386.815 205c0-100.415-81.403-181.818-181.818-181.818S23.178 104.585 23.178 205s81.403 181.819 181.819 181.819S386.815 305.416 386.815 205"/></mask><g stroke="#000" stroke-width="18.182" mask="url(#brat_svg-c)"><path d="M350.451 395.908c105.436 0 190.909-85.472 190.909-190.909S455.887 14.09 350.451 14.09 159.542 99.563 159.542 205s85.473 190.909 190.909 190.909Z"/><path d="M59.542 395.908c-105.436 0-190.909-85.472-190.909-190.909S-45.894 14.09 59.543 14.09 250.45 99.563 250.45 205 164.978 395.909 59.541 395.909Z"/><path d="M395.906 577.727c105.436 0 190.909-85.473 190.909-190.91s-85.473-190.909-190.909-190.909c-105.437 0-190.909 85.473-190.909 190.909 0 105.437 85.472 190.91 190.909 190.91Zm-381.818 0c-105.437 0-190.91-85.473-190.91-190.91s85.473-190.909 190.91-190.909 190.909 85.473 190.909 190.909c0 105.437-85.473 190.91-190.91 190.91Z"/></g><path stroke="#000" stroke-width="18.182" d="M395.909 205c0-105.436-85.473-190.91-190.909-190.91S14.09 99.565 14.09 205 99.565 395.909 205 395.909 395.909 310.436 395.909 205Z"/></g></g><defs><clipPath id="brat_svg-a"><rect width="410" height="410" fill="#fff" rx="205"/></clipPath><clipPath id="brat_svg-b"><path fill="#fff" d="M5 5h400v400H5z"/></clipPath></defs></svg>
